src/lib/packages/icons/src/assets/line/arrow-forward-circle-alt.svg

<svg width="24" height="24" viewBox="0 0 24 24" fill="none" xmlns="http://www.w3.org/2000/svg">
<path d="M17.25 10.502V12.75C17.25 13.164 16.914 13.5 16.5 13.5H14.25C13.836 13.5 13.5 13.164 13.5 12.75C13.5 12.336 13.836 12 14.25 12H14.968C14.26 11.074 13.1459 10.5 11.9399 10.5C10.1629 10.5 8.63698 11.7021 8.22998 13.4231C8.14898 13.7681 7.84098 14 7.50098 14C7.44298 14 7.3859 13.994 7.3269 13.98C6.9239 13.884 6.67502 13.4799 6.77002 13.0769C7.33702 10.6769 9.46297 9 11.939 9C13.406 9 14.768 9.61688 15.75 10.6299V10.502C15.75 10.088 16.086 9.75195 16.5 9.75195C16.914 9.75195 17.25 10.088 17.25 10.502ZM22.75 12C22.75 17.928 17.928 22.75 12 22.75C6.072 22.75 1.25 17.928 1.25 12C1.25 6.072 6.072 1.25 12 1.25C17.928 1.25 22.75 6.072 22.75 12ZM21.25 12C21.25 6.899 17.101 2.75 12 2.75C6.899 2.75 2.75 6.899 2.75 12C2.75 17.101 6.899 21.25 12 21.25C17.101 21.25 21.25 17.101 21.25 12Z" fill="currentColor"/>
</svg>

<svg xmlns="http://www.w3.org/2000/svg" width="24" height="24" fill="none"><path fill="currentColor" d="M17.25 10.502v2.248a.75.75 0 0 1-.75.75h-2.25a.75.75 0 0 1 0-1.5h.718a3.82 3.82 0 0 0-3.028-1.5 3.793 3.793 0 0 0-3.71 2.923.749.749 0 0 1-.903.557.751.751 0 0 1-.557-.903A5.286 5.286 0 0 1 11.939 9c1.467 0 2.829.617 3.811 1.63v-.128a.75.75 0 0 1 1.5 0ZM22.75 12c0 5.928-4.822 10.75-10.75 10.75S1.25 17.928 1.25 12 6.072 1.25 12 1.25 22.75 6.072 22.75 12Zm-1.5 0c0-5.101-4.149-9.25-9.25-9.25S2.75 6.899 2.75 12s4.149 9.25 9.25 9.25 9.25-4.149 9.25-9.25Z"/></svg>
